src/assets/icons/truck.svg

<svg width="14" height="14" viewBox="0 0 14 14" fill="none" xmlns="http://www.w3.org/2000/svg">
<g id="truck">
<g clip-path="url(#clip0_156_4538)">
<path id="Vector" d="M11.1616 3.02726H9.64813V2.45972C9.64813 1.72949 9.0541 1.13547 8.32387 1.13547H1.32425C0.594022 1.13547 0 1.72949 0 2.45972V9.27016C0 10.0004 0.594022 10.5944 1.32425 10.5944H1.53235C1.63072 11.8612 2.68104 12.8646 3.97276 12.8646C5.26447 12.8646 6.31479 11.8612 6.41317 10.5944H7.58683C7.6852 11.8612 8.73553 12.8646 10.0272 12.8646C11.319 12.8646 12.3693 11.8612 12.4676 10.5944H12.6757C13.406 10.5944 14 10.0004 14 9.27016V7.56755V6.43248V5.86494C13.9992 4.30005 12.7264 3.02726 11.1616 3.02726ZM1.13507 9.27016V2.45972C1.13507 2.35681 1.22134 2.27054 1.32425 2.27054H8.32387C8.42679 2.27054 8.51305 2.35681 8.51305 2.45972V3.02726V6.43248V7.56755V8.46956C8.48959 8.48772 8.4737 8.51345 8.45024 8.53312C8.33522 8.62998 8.23004 8.73668 8.1347 8.85246C8.10594 8.88726 8.07567 8.92056 8.04843 8.95688C7.93416 9.11276 7.83276 9.27849 7.75709 9.45858H6.24291C6.24139 9.45556 6.23912 9.45253 6.23836 9.44875C6.23761 9.44648 6.23609 9.44496 6.23534 9.44269C6.17934 9.31102 6.10897 9.18692 6.03178 9.06888C6.01059 9.03634 5.98714 9.00531 5.96443 8.97429C5.90163 8.88726 5.83352 8.80478 5.76012 8.72608C5.73136 8.69582 5.70337 8.66479 5.6731 8.63528C5.57851 8.54447 5.47787 8.45972 5.36966 8.3848C5.35679 8.37572 5.34393 8.36589 5.33106 8.35681C5.21907 8.28189 5.09875 8.21908 4.97541 8.16309C4.93152 8.14341 4.88687 8.12752 4.84147 8.11087C4.74688 8.07455 4.65002 8.04504 4.55089 8.02007C4.50549 8.00872 4.46084 7.99737 4.41468 7.98829C4.27015 7.9618 4.12334 7.94364 3.972 7.94364C3.82066 7.94364 3.67385 7.9618 3.52932 7.98829C3.48316 7.99661 3.43852 8.00872 3.39311 8.02007C3.29398 8.04428 3.19712 8.07455 3.10254 8.11087C3.05789 8.12828 3.01249 8.14341 2.9686 8.16309C2.84525 8.21908 2.72493 8.28189 2.61294 8.35681C2.59932 8.36589 2.58721 8.37572 2.57435 8.3848C2.46614 8.45972 2.36625 8.54447 2.2709 8.63528C2.24063 8.66479 2.21264 8.69506 2.18388 8.72608C2.11048 8.80403 2.04238 8.88651 1.97957 8.97429C1.95687 9.00607 1.93341 9.03634 1.91222 9.06888C1.83504 9.18768 1.76542 9.31102 1.70866 9.44269C1.70791 9.44496 1.70639 9.44648 1.70564 9.44875C1.70412 9.45177 1.70185 9.4548 1.7011 9.45858H1.3235C1.22134 9.45934 1.13507 9.37232 1.13507 9.27016ZM3.97276 11.7295C3.24253 11.7295 2.64851 11.1355 2.64851 10.4052C2.64851 10.3129 2.65834 10.2236 2.67575 10.1366C2.70374 9.99888 2.75899 9.87326 2.82558 9.75522C2.83693 9.73554 2.84525 9.71511 2.85736 9.69695C2.92622 9.58874 3.01249 9.49339 3.10859 9.41015C3.12751 9.39351 3.14642 9.37762 3.16686 9.36248C3.26901 9.28378 3.38101 9.21795 3.50284 9.17179C3.521 9.16498 3.54067 9.16044 3.55959 9.15438C3.6905 9.11125 3.82823 9.08174 3.97276 9.08174C4.11653 9.08174 4.25426 9.1105 4.38592 9.15438C4.40484 9.16044 4.42452 9.16498 4.44343 9.17179C4.56527 9.21795 4.67726 9.28378 4.77942 9.36248C4.79909 9.37762 4.81877 9.39426 4.83768 9.41015C4.93379 9.49339 5.0193 9.58874 5.08891 9.69695C5.10102 9.71587 5.1101 9.7363 5.1207 9.75597C5.18729 9.87326 5.24253 9.99963 5.27053 10.1366C5.28869 10.2236 5.29777 10.3129 5.29777 10.4052C5.29701 11.1347 4.70299 11.7295 3.97276 11.7295ZM10.0265 11.7295C9.29625 11.7295 8.70223 11.1355 8.70223 10.4052C8.70223 10.3137 8.71207 10.2244 8.72947 10.1381C8.74915 10.0473 8.77715 9.96029 8.81423 9.87705C8.8165 9.87251 8.81952 9.86872 8.82104 9.86418C8.8566 9.78549 8.89898 9.71133 8.94892 9.64171C8.95876 9.62809 8.97087 9.61674 8.9807 9.60312C9.02535 9.54485 9.07302 9.48961 9.12675 9.44042C9.14188 9.42604 9.15853 9.41469 9.17442 9.40107C9.22891 9.35491 9.28642 9.31178 9.34847 9.2747C9.36663 9.26335 9.3863 9.25427 9.40522 9.24368C9.47333 9.20508 9.54673 9.17633 9.62316 9.15136C9.65494 9.14076 9.68596 9.12941 9.71926 9.12185C9.81839 9.09839 9.92054 9.08174 10.0265 9.08174C10.1703 9.08174 10.308 9.1105 10.4397 9.15438C10.4586 9.16044 10.4782 9.16498 10.4972 9.17179C10.619 9.21795 10.731 9.28378 10.8331 9.36248C10.8528 9.37762 10.8725 9.39426 10.8914 9.41015C10.9875 9.49339 11.073 9.58874 11.1426 9.69695C11.1547 9.71587 11.1638 9.7363 11.1744 9.75597C11.241 9.87326 11.2963 9.99963 11.3243 10.1366C11.3424 10.2236 11.3515 10.3129 11.3515 10.4052C11.3507 11.1347 10.7567 11.7295 10.0265 11.7295ZM9.64813 6.43248V4.16233H11.1616C12.0999 4.16233 12.8642 4.92661 12.8642 5.86494V6.43248H9.64813Z" fill="black"/>
</g>
</g>
<defs>
<clipPath id="clip0_156_4538">
<rect width="14" height="14" fill="white"/>
</clipPath>
</defs>
</svg>

<svg xmlns="http://www.w3.org/2000/svg" fill="none" viewBox="0 0 14 14"><g clip-path="url(#a)"><path fill="#000" d="M11.162 3.027H9.648V2.46c0-.73-.594-1.325-1.324-1.325h-7C.594 1.135 0 1.73 0 2.46v6.81c0 .73.594 1.324 1.324 1.324h.208a2.454 2.454 0 0 0 2.44 2.27 2.454 2.454 0 0 0 2.441-2.27h1.174a2.454 2.454 0 0 0 2.44 2.27 2.454 2.454 0 0 0 2.44-2.27h.209C13.406 10.594 14 10 14 9.27V5.865a2.84 2.84 0 0 0-2.838-2.838M1.135 9.27V2.46c0-.103.086-.19.19-.19h6.999c.103 0 .189.087.189.19v6.01c-.023.018-.04.043-.063.063q-.173.146-.315.32-.046.05-.087.104a2.5 2.5 0 0 0-.29.502H6.242l-.005-.01q0-.004-.003-.006a2.4 2.4 0 0 0-.203-.374Q6 9.02 5.964 8.974a3 3 0 0 0-.204-.248q-.043-.046-.087-.09a2.5 2.5 0 0 0-.303-.251q-.02-.015-.039-.028a2.5 2.5 0 0 0-.356-.194q-.065-.028-.134-.052a3 3 0 0 0-.29-.09q-.068-.019-.136-.033a2.4 2.4 0 0 0-.443-.044c-.151 0-.298.018-.443.044q-.068.014-.136.032-.149.037-.29.09c-.045.018-.09.033-.134.053a2.5 2.5 0 0 0-.356.194l-.039.028q-.161.114-.303.25l-.087.091q-.111.116-.204.248-.035.047-.068.095a2.5 2.5 0 0 0-.203.374q-.002.002-.003.006l-.005.01h-.378a.19.19 0 0 1-.188-.189m2.838 2.46a1.326 1.326 0 0 1-1.297-1.593c.028-.138.083-.264.15-.382q.015-.03.031-.058a1.3 1.3 0 0 1 .31-.335c.102-.078.214-.144.336-.19q.028-.01.057-.018c.13-.043.268-.072.413-.072s.281.028.413.072q.03.008.057.018c.122.046.234.112.336.19l.059.048q.145.125.25.287.018.03.033.059c.066.117.122.244.15.38q.027.131.027.27c-.001.729-.595 1.323-1.325 1.323m6.054 0a1.326 1.326 0 0 1-1.298-1.592q.03-.136.085-.26l.007-.014q.053-.118.128-.222.016-.02.032-.039.066-.087.146-.163.024-.02.047-.039a1.3 1.3 0 0 1 .174-.126q.028-.016.057-.031.103-.057.218-.093.047-.017.096-.03c.1-.023.202-.04.308-.04.143 0 .281.03.413.073l.057.018c.122.046.234.112.336.19l.058.048q.146.125.252.287.016.03.031.059c.067.117.122.244.15.38q.027.131.027.27c0 .729-.594 1.323-1.325 1.323m-.379-5.298v-2.27h1.514c.938 0 1.702.765 1.702 1.703v.567z"/></g><defs><clipPath id="a"><path fill="#fff" d="M0 0h14v14H0z"/></clipPath></defs></svg>
